!!!SOCIAL_FUNCTION:	songs for little children
!!!PDT:	1939
!!!OTL: No_123_"I_Will_Be_a_Great_Warrior".krn
!!!LANG: Non-Tone
!!!LING_GROUP: Wakashan
!!!REG: Pacific Northwest
**kern
*staff1
=1-
*clefF4
*k[f#c#]
*M3/4
2r
8r
16B\LL
16B\JJ
=2
16B\LK
8.A\J
16A\LK
8.F#\J
16F#\
16r
16A\LL
16A\JJ
=3||
*M2/4
16F#\LL
16A\
16A\
16A\JJ
8F#\
8r
=4
4E\
16D\
16r
16E\LL
16E\JJ
=5
16F#\LL
16F#\
16F#\
16F#\JJ
8F#\
8r
=6
4E\
8F#\
16r
16A\
=7||
*M7/8
8A\
16r
16A\LL
16A\
16F#\JJ
8r
16A\LL
16A\
16A\
16F#\JJ
8r
=8||
*M2/4
4E\
16F#\
16r
16E\LL
16E\JJ
=9
16F#\LL
16F#\
16F#\
16F#\JJ
8F#\
8r
=10
4E\
8F#\
8r
==
*-
